Adwaita++-Dark/actions/16/selection-move-to-layer-above.svg

<svg height="16" viewBox="0 0 16 16" width="16" xmlns="http://www.w3.org/2000/svg">
  <path d="m4 1-3 4h9l3-4zm8.5 4-.1875.21875-2.3125 2.5.65625.6875 1.34375-1.4375v4.03125h-8l-3 4h9l3-4v-4.03125l1.34375 1.4375.65625-.6875-2.3125-2.5z" fill="#e6ddff"/>
</svg>

<svg xmlns="http://www.w3.org/2000/svg" width="16" height="16" viewBox="0 0 16 16">
 <defs>
  <style id="current-color-scheme" type="text/css">
   .ColorScheme-Text { color:#E6DDFF; } .ColorScheme-Highlight { color:#4285f4; }
  </style>
 </defs>
 <path style="fill:currentColor" class="ColorScheme-Text" d="M 4 1 L 1 5 L 10 5 L 13 1 L 4 1 z M 12.5 5 L 12.3125 5.21875 L 10 7.71875 L 10.65625 8.40625 L 12 6.96875 L 12 11 L 4 11 L 1 15 L 10 15 L 13 11 L 13 6.96875 L 14.34375 8.40625 L 15 7.71875 L 12.6875 5.21875 L 12.5 5 z"/>
</svg>
